X: 1
T: Hills Of Larraga, The
M: 6/8
L: 1/8
R: jig
K: Dmix
AG|:FDD cAA|dcA A{B}AG|FDD cAA|dcA ~G3|
FDD cAA|dcA B/c/de|~f3 ded|cAF ~G3:|
A2 d fed|cAB cde|dcA f{g}fd|cAF ~G3|
A2 d fed|cAB cde|~f3 d2 d|cAF ~G3:|
